svgs/thin/page.svg

<svg xmlns="http://www.w3.org/2000/svg" viewBox="0 0 384 512"><!--! Font Awesome Pro 6.1.1 by @fontawesome - https://fontawesome.com License - https://fontawesome.com/license (Commercial License) Copyright 2022 Fonticons, Inc. --><path d="M320 512H64C28.65 512 0 483.3 0 448V64C0 28.65 28.65 0 64 0H245.5C262.5 0 278.7 6.743 290.7 18.75L365.3 93.26C377.3 105.3 384 121.5 384 138.5V448C384 483.3 355.3 512 320 512zM64 496H320C346.5 496 368 474.5 368 448V138.5C368 125.8 362.9 113.6 353.9 104.6L279.4 30.06C270.4 21.06 258.2 16 245.5 16H64C37.49 16 16 37.49 16 64V448C16 474.5 37.49 496 64 496V496z"/></svg>

<svg xmlns="http://www.w3.org/2000/svg" viewBox="0 0 384 512"><!--! Font Awesome Pro 6.4.2 by @fontawesome - https://fontawesome.com License - https://fontawesome.com/license (Commercial License) Copyright 2023 Fonticons, Inc. --><path d="M64 496H320c26.5 0 48-21.5 48-48V138.5c0-12.7-5.1-24.9-14.1-33.9L279.4 30.1c-9-9-21.2-14.1-33.9-14.1H64C37.5 16 16 37.5 16 64V448c0 26.5 21.5 48 48 48zm256 16H64c-35.3 0-64-28.7-64-64V64C0 28.7 28.7 0 64 0H245.5c17 0 33.3 6.7 45.3 18.7l74.5 74.5c12 12 18.7 28.3 18.7 45.3V448c0 35.3-28.7 64-64 64z"/></svg>
